assets/ai/ai-closed-access-square.svg

<svg xmlns="http://www.w3.org/2000/svg" width="100%" height="100%" viewBox="-75.52 -43.52 599.04 599.04"><path d="M 48 32 C 21.5 32 0 53.5 0 80 L 0 432 C 0 458.5 21.5 480 48 480 L 400 480 C 426.5 480 448 458.5 448 432 L 448 80 C 448 53.5 426.5 32 400 32 L 48 32 z M 224.19531 96 C 271.37123 96 309.75391 134.38333 309.75391 181.56055 L 309.75391 262.01953 C 319.34258 277.45146 324.89062 295.64434 324.89062 315.11133 C 324.89063 370.73641 279.63103 416 224.00195 416 C 168.37424 416 123.10938 370.73642 123.10938 315.11133 C 123.10937 295.38252 128.8065 276.96032 138.63477 261.39648 L 138.63477 181.56055 C 138.63477 134.38333 177.02074 96 224.19531 96 z M 224.19531 130.26367 C 195.91381 130.26367 172.90039 153.27508 172.90039 181.56055 L 172.90039 228.15039 C 187.89758 219.30339 205.36652 214.21875 224.00195 214.21875 C 242.7983 214.21875 260.4074 219.3904 275.49023 228.37891 L 275.49023 181.56055 C 275.49023 153.27508 252.4768 130.26367 224.19531 130.26367 z M 224.00195 248.48438 C 187.26466 248.48437 157.37305 278.37272 157.37305 315.11133 C 157.37305 351.84599 187.26466 381.73828 224.00195 381.73828 C 260.73789 381.73828 290.62305 351.84599 290.62305 315.11133 C 290.62305 278.37273 260.73792 248.48438 224.00195 248.48438 z M 224.33008 287.14062 C 239.94313 287.14063 252.59766 299.79774 252.59766 315.41602 C 252.59766 331.02509 239.94313 343.67969 224.33008 343.67969 C 208.71839 343.67969 196.0625 331.02509 196.0625 315.41602 C 196.0625 299.79774 208.71839 287.14062 224.33008 287.14062 z"/></svg>

<svg xmlns="http://www.w3.org/2000/svg" width="100%" height="100%" viewBox="-75.52 -43.52 599.04 599.04"><path d="M48 32C21.5 32 0 53.5 0 80v352c0 26.5 21.5 48 48 48h352c26.5 0 48-21.5 48-48V80c0-26.5-21.5-48-48-48H48zm176.195 64c47.176 0 85.559 38.383 85.559 85.56v80.46c9.589 15.431 15.137 33.624 15.137 53.091C324.89 370.736 279.63 416 224 416c-55.627 0-100.892-45.264-100.892-100.889 0-19.728 5.698-38.15 15.526-53.715v-79.835c0-47.178 38.386-85.561 85.56-85.561zm0 34.264c-28.281 0-51.295 23.011-51.295 51.297v46.59c14.998-8.848 32.467-13.932 51.102-13.932 18.796 0 36.405 5.171 51.488 14.16V181.56c0-28.286-23.013-51.297-51.295-51.297zm-.193 118.22c-36.737 0-66.629 29.889-66.629 66.627 0 36.735 29.892 66.627 66.629 66.627 36.736 0 66.621-29.892 66.621-66.627 0-36.738-29.885-66.627-66.621-66.627zm.328 38.657c15.613 0 28.268 12.657 28.268 28.275 0 15.61-12.655 28.264-28.268 28.264-15.612 0-28.268-12.655-28.268-28.264 0-15.618 12.656-28.275 28.268-28.275z"/></svg>
